X:1
T:The Earl of Eglinton
T:The Earl of Eglinton
T:Nathaniel Gow
C:Nathaniel Gow
L:1/8
Q:1/8=128
M:4/4
K:E
V:1 treble 
V:1
|: G | EB B>G E>e g>f | e<c B>G cF F>G | EB B>G E>e g>e | c>d e>f ge eG | EB B>G E>e g>f | %6
 e<c B>G cF F>G | EB B>G E>e g>e | c>d e>f ge ea | g>e f>g a>f g>e | c<B a>g af f>a | %11
 g>e dB c/B/c/d/ e>c | B>d f>a ge e>a | g>e c<e B<e B<G | A<c B>G cF F>G | E>G F>A G>B A>c | %16
 Be df eEE :| %17

